X: 1353
T: the Comely Maiden   #2
R: reel
%S: s:2 b:12(6+6)
%S: s:4 b:16(4+4+4+4)
O: O'Reilly
B: O'Neill's 1850 #1353
Z: Trish O'Neil
Z: Compacted via repeats and multiple endings [JC]
M: C|
L: 1/8
K: D
|:\
d2(dc) dAFA | dbab fbaf |\
[1 d2(dc) dAFA | Beed cABc :|\
[2 bagf edcB | Aeed cABc |]
|:\
d2(a^g) afdf | abaf e^de \
[1 f | d2(a^g) afdf | efed cABc :|\
[2 g | bgaf gfed | efed cABc |]
